svg/icon/cix.svg

<svg height="32" viewBox="0 0 32 32" width="32" xmlns="http://www.w3.org/2000/svg" xmlns:xlink="http://www.w3.org/1999/xlink"><defs><linearGradient id="a" x1="50%" x2="50%" y1="0%" y2="100%"><stop offset="0" stop-color="#fff" stop-opacity=".5"/><stop offset="1" stop-opacity=".5"/></linearGradient><circle id="b" cx="16" cy="15" r="15"/><filter id="c" height="111.7%" width="111.7%" x="-5.8%" y="-4.2%"><feOffset dy=".5" in="SourceAlpha" result="shadowOffsetOuter1"/><feGaussianBlur in="shadowOffsetOuter1" result="shadowBlurOuter1" stdDeviation=".5"/><feComposite in="shadowBlurOuter1" in2="SourceAlpha" operator="out" result="shadowBlurOuter1"/><feColorMatrix in="shadowBlurOuter1" values="0 0 0 0 0   0 0 0 0 0   0 0 0 0 0  0 0 0 0.199473505 0"/></filter><path id="d" d="m24.6677122 17.8630181-1.0585693-.6632959 2.3100597-.0269305.0473688-.026125v.0255728l.9545715-.0111284-1.6188572 2.6352778-.1453553-1.2695141-7.3640733 4.0620141-2.7914285-3.7283333-7.83285717 4.125v-.9402778l8.07371427-4.2519445 2.7917143 3.7283334zm-10.1119979-.9052403-3.0602857 1.6116666v-10.92555551h3.0602857zm8.6537143.4813889-3.0602857 1.7002777v-11.49555551h3.0602857z"/><filter id="e" height="122.8%" width="117.7%" x="-8.9%" y="-8.1%"><feOffset dy=".5" in="SourceAlpha" result="shadowOffsetOuter1"/><feGaussianBlur in="shadowOffsetOuter1" result="shadowBlurOuter1" stdDeviation=".5"/><feColorMatrix in="shadowBlurOuter1" values="0 0 0 0 0   0 0 0 0 0   0 0 0 0 0  0 0 0 0.204257246 0"/></filter><path id="f" d="m18.8825714 19.8427778-.6565714.3647222-2.404-3.2108333v-8.10305559h3.0605714zm-8.6537143-.6063889-3.06028567 1.6116667v-10.5363889h3.06028567z"/><filter id="g" height="129.3%" width="129.9%" x="-14.9%" y="-10.5%"><feOffset dy=".5" in="SourceAlpha" result="shadowOffsetOuter1"/><feGaussianBlur in="shadowOffsetOuter1" result="shadowBlurOuter1" stdDeviation=".5"/><feComposite in="shadowBlurOuter1" in2="SourceAlpha" operator="out" result="shadowBlurOuter1"/><feColorMatrix in="shadowBlurOuter1" values="0 0 0 0 0   0 0 0 0 0   0 0 0 0 0  0 0 0 0.204257246 0"/></filter></defs><g fill="none" fill-rule="nonzero"><g><use fill="#000" filter="url(#c)" xlink:href="#b"/><use fill="#0576b4" fill-rule="evenodd" xlink:href="#b"/><use fill="url(#a)" fill-rule="evenodd" xlink:href="#b"/><circle cx="16" cy="15" r="14.5" stroke="#000" stroke-opacity=".097"/></g><g><use fill="#000" filter="url(#e)" xlink:href="#d"/><use fill="#fff" fill-rule="evenodd" xlink:href="#d"/></g><g><use fill="#000" filter="url(#g)" xlink:href="#f"/><use fill="#fff" fill-opacity=".5" fill-rule="evenodd" xlink:href="#f"/></g></g></svg>

<svg xmlns="http://www.w3.org/2000/svg" xmlns:xlink="http://www.w3.org/1999/xlink" width="32" height="32" viewBox="0 0 32 32">
  <defs>
    <linearGradient id="cix-c" x1="50%" x2="50%" y1="0%" y2="100%">
      <stop offset="0%" stop-color="#FFF" stop-opacity=".5"/>
      <stop offset="100%" stop-opacity=".5"/>
    </linearGradient>
    <circle id="cix-b" cx="16" cy="15" r="15"/>
    <filter id="cix-a" width="111.7%" height="111.7%" x="-5.8%" y="-4.2%" filterUnits="objectBoundingBox">
      <feOffset dy=".5" in="SourceAlpha" result="shadowOffsetOuter1"/>
      <feGaussianBlur in="shadowOffsetOuter1" result="shadowBlurOuter1" stdDeviation=".5"/>
      <feComposite in="shadowBlurOuter1" in2="SourceAlpha" operator="out" result="shadowBlurOuter1"/>
      <feColorMatrix in="shadowBlurOuter1" values="0 0 0 0 0   0 0 0 0 0   0 0 0 0 0  0 0 0 0.199473505 0"/>
    </filter>
    <path id="cix-e" d="M24.6677122,17.8630181 L23.6091429,17.1997222 L25.9192026,17.1727917 L25.9665714,17.1466667 L25.9665714,17.1722395 L26.9211429,17.1611111 L25.3022857,19.7963889 L25.1569304,18.5268748 L17.7928571,22.5888889 L15.0014286,18.8605556 L7.16857143,22.9855556 L7.16857143,22.0452778 L15.2422857,17.7933333 L18.034,21.5216667 L24.6677122,17.8630181 Z M14.5557143,16.9577778 L11.4954286,18.5694444 L11.4954286,7.64388889 L14.5557143,7.64388889 L14.5557143,16.9577778 Z M23.2094286,17.4391667 L20.1491429,19.1394444 L20.1491429,7.64388889 L23.2094286,7.64388889 L23.2094286,17.4391667 Z"/>
    <filter id="cix-d" width="117.7%" height="122.8%" x="-8.9%" y="-8.1%" filterUnits="objectBoundingBox">
      <feOffset dy=".5" in="SourceAlpha" result="shadowOffsetOuter1"/>
      <feGaussianBlur in="shadowOffsetOuter1" result="shadowBlurOuter1" stdDeviation=".5"/>
      <feColorMatrix in="shadowBlurOuter1" values="0 0 0 0 0   0 0 0 0 0   0 0 0 0 0  0 0 0 0.204257246 0"/>
    </filter>
    <path id="cix-g" d="M18.8825714,19.8427778 L18.226,20.2075 L15.822,16.9966667 L15.822,8.89361111 L18.8825714,8.89361111 L18.8825714,19.8427778 Z M10.2288571,19.2363889 L7.16857143,20.8480556 L7.16857143,10.3116667 L10.2288571,10.3116667 L10.2288571,19.2363889 Z"/>
    <filter id="cix-f" width="129.9%" height="129.3%" x="-14.9%" y="-10.5%" filterUnits="objectBoundingBox">
      <feOffset dy=".5" in="SourceAlpha" result="shadowOffsetOuter1"/>
      <feGaussianBlur in="shadowOffsetOuter1" result="shadowBlurOuter1" stdDeviation=".5"/>
      <feComposite in="shadowBlurOuter1" in2="SourceAlpha" operator="out" result="shadowBlurOuter1"/>
      <feColorMatrix in="shadowBlurOuter1" values="0 0 0 0 0   0 0 0 0 0   0 0 0 0 0  0 0 0 0.204257246 0"/>
    </filter>
  </defs>
  <g fill="none" fill-rule="evenodd">
    <g fill-rule="nonzero">
      <use fill="#000" filter="url(#cix-a)" xlink:href="#cix-b"/>
      <use fill="#0576B4" fill-rule="evenodd" xlink:href="#cix-b"/>
      <use fill="url(#cix-c)" fill-rule="evenodd" style="mix-blend-mode:soft-light" xlink:href="#cix-b"/>
      <circle cx="16" cy="15" r="14.5" stroke="#000" stroke-opacity=".097"/>
    </g>
    <g fill-rule="nonzero">
      <use fill="#000" filter="url(#cix-d)" xlink:href="#cix-e"/>
      <use fill="#FFF" fill-rule="evenodd" xlink:href="#cix-e"/>
    </g>
    <g fill-rule="nonzero">
      <use fill="#000" filter="url(#cix-f)" xlink:href="#cix-g"/>
      <use fill="#FFF" fill-opacity=".5" fill-rule="evenodd" xlink:href="#cix-g"/>
    </g>
  </g>
</svg>
